X:1740
M:2/4
R:R
T:Earl's Breakdown
T:Fiddle break on the "Essential Flatt & Scruggs"
O:england
C:Earl Scruggs
K:G
z2DC (B,C)DG | EFGA Bcde | d3^A BGAd |\
BGEG DEDC | B,G,^A,B, G,CB,C | DGEF GABc |
BAGD EFAc | BAce d4 - | d4 [d3g][eg] |\
[d3g]^A BGAd | BAGF EFGB | AGEG D4 - |
DEDC B,CDG | EFGA Bcde | d3^A - BGAd |\
BGED G4 - | G4 [D4D] - | [D4D] DCB,G, |
DCB,G, EFGB | AGEG DEDC | B,G,^A,B, G,CB,C |\
DGEF GABc | BAGD [E4^c] | [A2c][D2A] [F4d] - |
[F4d] [d4g] - | [d4g] - [d3g][eg] | [d3g]^A - BGAd |\
BGEG D4 - | DEDC B,CDG | EFGA Bcde |
d3^A - BGAd | BGED GEDC | B,G,^A,B, G,4 :|


